X: 1457
T:Norwegian Waltz
R:Waltz
M:3/4
L:1/8
S:Marcel Robidas, one of many ways he played it!
Z:<http://tunes.nhcountrydance.com>.
K:G
dc\
| "G" B2D2G2 | "G7" B4 ed| "C" c2E2G2| "Am" c6 |
  "D7" D2F2>A2| d3g fa |"G"g3 fge |"D7"d4 ||
dc\
| "G" B2D2G2| "G7" B4 ed| "C" c2E2G2| "Am" c6 |
  "D7" D2F2>A2| d2e2f2 |"G"g3 fga| g4 |]
[|ga\
| "G" b2g2>g2| "G7" g2d2 AB| "C" c2 cB cd| "Am" e4 de|
  "D"f4 fg  |    f2 e2 ef | g2ga ge | "G" d4ga ||
  "G" b2g2>g2| "G7" g2d2 AB| "C" c2 cB cd| "Am" e3g ^fg|
  "D7"d2fza2 |  d2fz a2   | de dc BA | "G" G4 |]


